X: 10053
T: UP AND WAUR THEM A WILLIE
Q: "Slowish"
%R: strathspey
B: "Edinburgh Repository of Music" v.1 p.5 #3
F: http://digital.nls.uk/special-collections-of-printed-music/pageturner.cfm?id=87776133
Z: 2015 John Chambers <jc:trillian.mit.edu>
M: C|
L: 1/8
K: A
e |\
A/A/A c>A d3 f | A/A/A c>A B3 c |\
A/A/A c>A d>efa | e>dcB A2A :|
|: g |\
a>fe>c d2d>f | a>fec B2B>g |\
a>fec d>efa | e>dc>B A2A :|

%%sep 2 1 500
%%sep 1 1 500

